pro/src/icons/stroke-calendar.svg

<svg width="48" height="48" viewBox="0 0 48 48" fill="none" xmlns="http://www.w3.org/2000/svg">
<path id="icon" fill-rule="evenodd" clip-rule="evenodd" d="M32.9638 5C31.8575 5 30.9663 5.89228 30.9663 7V7.79993C30.9794 7.86457 30.9863 7.93148 30.9863 8C30.9863 8.06852 30.9794 8.13543 30.9663 8.20007V9C30.9663 10.1077 31.8575 11 32.9638 11C33.5154 11 33.9625 11.4477 33.9625 12C33.9625 12.5523 33.5154 13 32.9638 13C30.7543 13 28.9688 11.2123 28.9688 9H18.0025H18.0025H16.2447C15.6931 9 15.246 8.55228 15.246 8C15.246 7.44772 15.6931 7 16.2447 7H17.0038C17.0038 5.89228 16.1126 5 15.0063 5C13.8999 5 13.0088 5.89228 13.0088 7V9C13.0088 10.1077 13.8999 11 15.0063 11C15.5579 11 16.005 11.4477 16.005 12C16.005 12.5523 15.5579 13 15.0063 13C12.7967 13 11.0113 11.2123 11.0113 9H7.99501C6.88867 9 5.9975 9.89228 5.9975 11V15H36.9788C37.5304 15 37.9776 15.4477 37.9776 16C37.9776 16.5523 37.5304 17 36.9788 17H5.9975V37C5.9975 39.7577 8.23699 42 10.9913 42H36.9588C39.7451 42 41.9943 39.7089 41.9527 36.9149L41.9526 36.8981L42.0025 11.0089C41.9775 9.89638 41.0635 9 39.9551 9H35.98H35.9601H34.2222C33.6706 9 33.2235 8.55228 33.2235 8C33.2235 7.44772 33.6706 7 34.2222 7H34.9613C34.9613 5.89228 34.0701 5 32.9638 5ZM19.0013 7H28.9688C28.9688 4.78772 30.7543 3 32.9638 3C35.1733 3 36.9588 4.78772 36.9588 7H39.9551C42.1595 7 43.9601 8.77871 43.9998 10.9819L44 11.0019L43.9501 36.8939C44.0034 40.7959 40.8612 44 36.9588 44H10.9913C7.1338 44 4 40.8623 4 37V11C4 8.78772 5.78548 7 7.99501 7H11.0113C11.0113 4.78772 12.7967 3 15.0063 3C17.2158 3 19.0013 4.78772 19.0013 7Z" fill="currentColor"/>
</svg>

<svg xmlns="http://www.w3.org/2000/svg" width="48" height="48" fill="none"><path id="icon" fill="currentColor" fill-rule="evenodd" d="M32.964 5a1.995 1.995 0 0 0-1.998 2v.8a1 1 0 0 1 0 .4V9c0 1.108.892 2 1.998 2a1 1 0 0 1 0 2 3.993 3.993 0 0 1-3.995-4H16.245a1 1 0 0 1 0-2h.759c0-1.108-.891-2-1.998-2a1.995 1.995 0 0 0-1.997 2v2c0 1.108.89 2 1.997 2a1 1 0 0 1 0 2 3.993 3.993 0 0 1-3.995-4H7.995a1.995 1.995 0 0 0-1.998 2v4H36.98a1 1 0 0 1 0 2H5.998v20c0 2.758 2.239 5 4.993 5H36.96c2.786 0 5.035-2.291 4.994-5.085v-.017l.05-25.89A2.057 2.057 0 0 0 39.954 9h-5.733a1 1 0 0 1 0-2h.74c0-1.108-.892-2-1.998-2M19 7h9.968c0-2.212 1.785-4 3.995-4a3.993 3.993 0 0 1 3.995 4h2.996A4.056 4.056 0 0 1 44 10.982v.02l-.05 25.892C44.003 40.796 40.861 44 36.96 44H10.99C7.134 44 4 40.862 4 37V11c0-2.212 1.785-4 3.995-4h3.016c0-2.212 1.786-4 3.995-4a3.993 3.993 0 0 1 3.995 4" clip-rule="evenodd"/></svg>
